svgs/shazam.svg

<svg width="192" height="192" viewBox="0 0 192 192" fill="none" xmlns="http://www.w3.org/2000/svg"><path fill-rule="evenodd" clip-rule="evenodd" d="M41.163 50.577c-19.136 19.136-19.136 50.161 0 69.297 19.136 19.135 50.16 19.135 69.296 0l9.193-9.193a6 6 0 0 0-8.485-8.485l-9.193 9.192c-14.45 14.45-37.876 14.45-52.326 0-14.45-14.45-14.45-37.876 0-52.326l31.82-31.82a6 6 0 1 0-8.485-8.485l-31.82 31.82Zm108.894 90.51c19.136-19.136 19.136-50.161 0-69.297-19.135-19.136-50.16-19.136-69.296 0l-9.192 9.193a6 6 0 0 0 8.485 8.485l9.192-9.193c14.45-14.449 37.877-14.449 52.326 0 14.449 14.45 14.449 37.877 0 52.326l-31.82 31.82a6.001 6.001 0 0 0 8.486 8.486l31.819-31.82Z" fill="#000"/></svg>

<svg id="vector" xmlns="http://www.w3.org/2000/svg" width="192" height="192" viewBox="0 0 192 192"><path fill="#000000" d="M41.163,50.577C22.027,69.713 22.027,100.738 41.163,119.874C60.299,139.009 91.324,139.009 110.459,119.874L119.652,110.681C121.995,108.338 121.995,104.539 119.652,102.196C117.309,99.853 113.51,99.853 111.167,102.196L101.974,111.388C87.525,125.838 64.098,125.838 49.648,111.388C35.199,96.939 35.199,73.512 49.648,59.062L81.468,27.243C83.811,24.899 83.811,21.1 81.468,18.757C79.125,16.414 75.326,16.414 72.983,18.757L41.163,50.577ZM150.057,141.087C169.193,121.951 169.193,90.926 150.057,71.79C130.922,52.654 99.897,52.654 80.761,71.79L71.568,80.983C69.225,83.326 69.225,87.125 71.568,89.468C73.912,91.811 77.711,91.811 80.054,89.468L89.246,80.275C103.696,65.826 127.123,65.826 141.572,80.275C156.021,94.725 156.021,118.152 141.572,132.601L109.752,164.421C107.409,166.764 107.409,170.563 109.752,172.907C112.095,175.25 115.894,175.25 118.238,172.907L150.057,141.087Z" fill-rule="evenodd" id="path_0"/></svg>
